X:8013
T:Heel and Toe Polka
R:Polka
C:Trad.
O:England
Z:Paul Hardy's Session Tunebook 2015 (see www.paulhardy.net). Creative Commons cc by-nc-sa licenced.
M:2/4
L:1/8
Q:1/4=100
K:G
"G" B2 B2|AG G2|"D" FG AB|dc c2|"C"c2 c2|BA A2|"G"GF "C"EF|"G"ED "D"B,A,|
"G" B2 B2|AG G2|"D" FG AB|dc c2|"C"c2 c2|BA A2|"G"GF "C"EF|"G" G2 GA||
|:"Em"BE BE|BE EF|"G"GE "Em"E2|"D" FB B2|"Em"BE BE|BE EF|"G" G2 "D" F2|"Em" E2 E2:|
"G" D2 GA|B3 c|dB GA|B3B|"C" cc Ac|"G" BA GB|"A" AG FG|"D" A2 A2|
"G" D2 GA|B3 c|dB GA|B3B|"C" cc Ac|"G" BA GB|"D" AD EF|"G" G4|]

